svgs/light/spa.svg

<svg xmlns="http://www.w3.org/2000/svg" viewBox="0 0 576 512"><!-- Font Awesome Pro 5.15.3 by @fontawesome - https://fontawesome.com License - https://fontawesome.com/license (Commercial License) --><path d="M568.28 192.08h-.04c-22.64.1-92 4.29-158.85 42.35-19.43-81.58-60.36-153.88-112.52-199.29-2.4-2.09-5.63-3.14-8.85-3.14s-6.44 1.04-8.85 3.14C227 80.55 186.05 152.85 166.6 234.44 99.76 196.37 30.4 192.19 7.75 192.08h-.04c-4.39 0-7.76 3.41-7.72 7.82.23 27.94 7.14 126.2 88.77 199.41 58.23 56.73 131.07 74.8 176.96 80.46.01.3 44.52.3 44.52 0 45.89-5.66 118.73-23.73 176.96-80.46 81.64-73.2 88.54-171.47 88.77-199.41.07-4.41-3.29-7.82-7.69-7.82zM110.13 375.47c-55.22-49.52-71.61-112.28-76.32-149.92 40.84 4.1 110.91 19.31 166.44 73.44 25.37 22.72 44.4 49.96 58.17 83.28 8.5 20.57 13.57 41.3 13.57 65.82-42.77-1.15-114.58-26.6-161.86-72.62zm111.46-100.34c-8.51-8.3-17.45-15.42-26.46-22.15 15.13-71.58 48.71-138.15 92.9-182.33 44.17 44.17 77.74 110.74 92.85 182.32-9.02 6.73-17.95 13.85-26.47 22.15-33.12 29.65-53.36 63.34-66.41 94.91-13.05-31.57-33.29-65.26-66.41-94.9zM464.9 376.37c-44.61 43.46-116.13 70.51-160.9 71.71 0-24.31 4.98-45.03 13.57-65.82 13.77-33.33 32.8-60.57 59.17-84.22 54.78-53.42 124.71-68.46 165.44-72.52-4.74 37.68-21.29 100.62-77.28 150.85z"/></svg>

<svg xmlns="http://www.w3.org/2000/svg" viewBox="0 0 576 512"><!--! Font Awesome Pro 6.0.0 by @fontawesome - https://fontawesome.com License - https://fontawesome.com/license (Commercial License) Copyright 2022 Fonticons, Inc. --><path d="M568.3 192c-22.62 0-92 4.335-158.9 42.33c-19.38-81.49-60.38-153.9-112.5-199.2C294.5 32.1 291.2 32 288 32S281.6 32.1 279.1 35.12C227 80.5 185.1 152.9 166.6 234.5C99.75 196.4 30.38 192.2 7.75 192C3.375 192 0 195.5 0 199.9c.25 27.1 7.125 126.2 88.75 199.3c58.25 56.75 131.1 74.94 177 80.57c0 .375 44.5 .375 44.5 0c45.88-5.625 118.8-23.82 177-80.57C568.9 326 575.8 227.9 576 199.9C576 195.5 572.6 192 568.3 192zM110.1 375.5C54.88 325.1 38.5 263.2 33.75 225.5c40.87 4.125 111 19.37 166.5 73.49c25.38 22.75 44.38 49.1 58.13 83.24C266.9 402.8 272 423.6 272 448.1C229.3 446.1 157.4 421.5 110.1 375.5zM221.6 275c-8.5-8.249-17.5-15.29-26.5-22.04C210.2 181.4 243.9 114.9 288 70.62c44.25 44.25 77.75 110.7 92.88 182.4c-9 6.75-18 13.79-26.5 22.04C321.2 304.6 301 338.4 288 369.9C275 338.4 254.8 304.6 221.6 275zM464.9 376.4C420.2 419.8 348.8 446.8 304 448.1c0-24.37 5-45.12 13.62-65.87c13.75-33.37 32.75-60.5 59.13-84.24c54.75-53.37 124.7-68.37 165.4-72.5C537.5 263.2 520.9 326.1 464.9 376.4z"/></svg>
